!!!COM: Hensel, Fanny
!!!CDT: 1805/11/14-1847/05/14
!!!LYR: Uhland, Ludwig
!!!OTL: Im Herbste
!!!OMD: Allegro ma non troppo
**kern	**text	**dynam	**kern	**text	**dynam	**kern	**text	**dynam	**kern	**text	**dynam
*part4	*part4	*part4	*part3	*part3	*part3	*part2	*part2	*part2	*part1	*part1	*part1
*staff4	*staff4	*	*staff3	*staff3	*	*staff2	*staff2	*	*staff1	*staff1	*
*I"Baß	*	*	*I"Tenor	*	*	*I"Alt	*	*	*I"Sopran	*	*
*clefF4	*	*	*clefGv2	*	*	*clefG2	*	*	*clefG2	*	*
*k[f#c#g#]	*	*	*k[f#c#g#]	*	*	*k[f#c#g#]	*	*	*k[f#c#g#]	*	*
*A:	*	*	*A:	*	*	*A:	*	*	*A:	*	*
*M9/8	*	*	*M9/8	*	*	*M9/8	*	*	*M9/8	*	*
=	=	=	=	=	=	=	=	=	=	=	=
!	!	!	!	!	!	!	!	!	!LO:TX:a:B:t=Allegro ma non troppo	!	!
4A	Seid	mf	8eL	Seid	mf	4a	Seid	mf	8cc#L	Seid	mf
.	.	.	8c#J	.	.	.	.	.	8ddJ	.	.
8A	ge-	.	8d	ge-	.	8a	ge-	.	8ff#	ge-	.
=1	=1	=1	=1	=1	=1	=1	=1	=1	=1	=1	=1
[4.A	-grüsst	.	[4.c#	-grüsst	.	[4.a	-grüsst	.	[4.ee	-grüsst	.
4A]	.	.	4c#]	.	.	4a]	.	.	4ee]	.	.
8A	mit	.	8c#	mit	.	8e	mit	.	8a	mit	.
.	.	.	.	.	.	.	.	.	8qqb/	.	.
4F#	Früh-	.	4A	Früh-	.	4d#X	Früh-	.	8aL	Früh-	.
.	.	.	.	.	.	.	.	.	8g#J	.	.
8F#	-lings-	.	8A	-lings-	.	8d#	-lings-	.	8a	-lings-	.
=2	=2	=2	=2	=2	=2	=2	=2	=2	=2	=2	=2
4.E	-won-	.	4.A	-won-	.	4.d#X	-won-	.	4.cc#	-won-	.
4.E	-ne,	.	4.G#	-ne,	.	4.e	-ne,	.	4.b	-ne,	.
!	!	!LO:DY:a	!	!	!LO:DY:a	!	!	!LO:DY:a	!	!	!LO:DY:a
4D	blau	<	8G#L	blau	<	4e	blau	<	8bL	blau	<
.	.	.	8AJ	.	.	.	.	.	8cc#J	.	.
8D	er	.	8G#	er	.	8e	er	.	8b	er	.
=3	=3	=3	=3	=3	=3	=3	=3	=3	=3	=3	=3
4.C#	Him-	[	4.c#	Him-	[	4.e	Him-	[	4.ee	Him-	[
4.C#	-mel,	.	4.A	-mel,	.	4.e	-mel,	.	4.cc#	-mel,	.
!	!	!LO:DY:a	!	!	!LO:DY:a	!	!	!LO:DY:a	!	!	!LO:DY:a
4D	gold-	<	8G#L	gold-	<	4e	gold-	<	8bL	gold-	<
.	.	.	8AJ	.	.	.	.	.	8cc#J	.	.
8D	-ne	[	8G#	-ne	[	8e	-ne	[	8b	-ne	[
=4	=4	=4	=4	=4	=4	=4	=4	=4	=4	=4	=4
4.C#	Son-	.	4.c#	Son-	.	4.e	Son-	.	[4.ee	Son-	.
4.C#	.	.	4.A	.	.	4.e	.	.	4ee]	.	.
!	!	!	!	!	!	!	!	!	!	!	!LO:DY:a
.	.	.	.	.	.	.	.	.	8cc#	-ne,	>
4.r	-blau-	.	4.r	-blau-	.	4.r	-blau-	.	4b	blau-	.
.	.	.	.	.	.	.	.	.	8a	-er	]
=5	=5	=5	=5	=5	=5	=5	=5	=5	=5	=5	=5
4.r	-Him-	.	4.r	-Him-	.	4.r	-Him-	.	(4b	Him-	.
.	.	.	.	.	.	.	.	.	8a	.	.
4.F#	.	.	4.A	.	.	4.d#X	.	.	4g#)	.	.
.	.	.	.	.	.	.	.	.	8a	-mel,	.
4.BB	-gold’-	.	4.A	-gold’-	.	4.d#	-gold’-	.	4g#	gold’-	.
.	.	.	.	.	.	.	.	.	8a	-ne	.
=6	=6	=6	=6	=6	=6	=6	=6	=6	=6	=6	=6
4.E;	-Son-	.	4.A;	-Son-	.	4.d#X;	-Son-	.	4.cc#;	Son-	.
4.E;	-ne,	.	4.G#;	-ne,	.	4.e;	-ne,	.	4.b;	-ne,	.
4E	drü-	.	8G#L	drü-	.	8eL	drü-	.	4ee	drü-	.
.	.	.	8AJ	.	.	8f#J	.	.	.	.	.
8E	-ben	.	8c#	-ben	.	8a	-ben	.	8ee	-ben	.
=7	=7	=7	=7	=7	=7	=7	=7	=7	=7	=7	=7
2.E	auch,	.	4.c#	auch	.	4.a	auch	.	[4.ee	auch	.
.	.	.	4.B	aus	.	4.g#	aus	.	4ee]	.	.
.	.	.	.	.	.	.	.	.	8b	aus	.
4E	drü-	.	8BL	Gar-	.	8g#L	Gar-	.	4e	Gar-	.
.	.	.	8c#J	.	.	8aJ	.	.	.	.	.
8E	-ben	.	8e	-ten-	.	8cc#	-ten-	.	8a	-ten-	.
=8	=8	=8	=8	=8	=8	=8	=8	=8	=8	=8	=8
2.E	auch	.	4.e	-hal-	.	4.cc#	-hal-	.	4.a	-hal-	.
.	.	.	4.d	-len	.	4.b	-len	.	4.g#	-len	.
4.F#	aus	.	4d	hör’	.	4f#	hör’	.	4ff#	hör’	.
.	.	.	8c#	ich	.	8a#X	ich	.	8ee	ich	.
=9	=9	=9	=9	=9	=9	=9	=9	=9	=9	=9	=9
2.BB	Gar-	.	(4.c#	fro-	.	(4.a#X	fro-	.	(4.ee	fro-	.
.	.	.	4B)	.	.	4b)	.	.	4dd#X)	.	.
.	.	.	8d#X	-he	.	8an	-he	.	8cc#	-he	.
(4C#	-ten-	.	4e	Sai-	.	4g#	Sai-	.	4b	Sai-	.
8D#X)	.	.	8B	-ten	.	8f#	-ten	.	8a	-ten	.
=10	=10	=10	=10	=10	=10	=10	=10	=10	=10	=10	=10
4.E	-hal-	.	4.B	schal-	.	4.d#X	schal-	.	4.a	schal-	.
4.E	-len	.	4.B	-len,	.	4.e	-len,	.	4.g#	-len,	.
4.r	.	.	4.r	.	.	4.r	.	.	4ee	drü-	.
.	.	.	.	.	.	.	.	.	8ee	-ben	.
=11	=11	=11	=11	=11	=11	=11	=11	=11	=11	=11	=11
8%9r	.	.	4.r	.	.	4.r	.	.	[4.ee	auch	.
.	.	.	4.r	.	.	4.r	.	.	4ee]	.	.
.	.	.	.	.	.	.	.	.	8b	aus	.
.	.	.	4e	drü-	.	4e	drü-	.	4g#	Gar-	.
.	.	.	8e	-ben	.	8f#	-ben	.	8a	-ten-	.
=12	=12	=12	=12	=12	=12	=12	=12	=12	=12	=12	=12
4.r	.	.	[4.e	auch	.	(4.a	auch	.	4.cc#	-hal-	.
4.r	.	.	4e]	.	.	4.g#)	.	.	4.b	-len	.
.	.	.	8B	aus	.	.	.	.	.	.	.
4E	hör’	.	4G#	Gar-	.	4e	hör’	.	4ee	hör’	.
8E	ich	.	8A	-ten-	.	8f#	ich	.	8ee	ich	.
=13	=13	=13	=13	=13	=13	=13	=13	=13	=13	=13	=13
[4.E	fro-	.	4.c#	-hal-	.	4.a	fro-	.	[4.ee	fro-	.
4E]	-he	.	4.B	-len	.	4.g#	-he	.	4ee]	.	.
8BB	.	.	.	.	.	.	.	.	8g#	-he	.
4GG#	Sai-	.	4e	drü-	.	4d	Sai-	.	4b	Sai-	.
8AA	-ten	.	8e	-ben	.	8c#	-ten	.	8a	-ten	.
=14	=14	=14	=14	=14	=14	=14	=14	=14	=14	=14	=14
4.BB;	schal-	.	2.e;	auch	.	4.d;	schal-	.	4.a;	schal-	.
4.E;	-len.	.	.	.	.	4.d;	-len.	.	4.g#;	-len.	.
=15	=15	=15	=15	=15	=15	=15	=15	=15	=15	=15	=15
*k[]	*	*	*k[]	*	*	*k[]	*	*	*k[]	*	*
*a:	*	*	*a:	*	*	*a:	*	*	*a:	*	*
4E	-Ah-	.	4A	-Ah-	.	4c	Ah-	.	4ccn	Ah-	.
8E	nest	.	8B	nest	.	8d	-nest	.	8g#X	-nest	.
=16	=16	=16	=16	=16	=16	=16	=16	=16	=16	=16	=16
2.F	du,	.	4.B	du,	.	4.d	du,	.	(4.g#X	du,	.
.	.	.	4.A	o	.	4.c	o	.	4a)	.	.
.	.	.	.	.	.	.	.	.	8cc	o	.
4F#X	See-	.	4c	See-	.	4a	See-	.	4ee	See-	.
8F#	-le,	.	8d	-le,	.	8a	-le,	.	8dd	-le,	.
=17	=17	=17	=17	=17	=17	=17	=17	=17	=17	=17	=17
4.G	wie-	.	4.e	wie-	.	4.g	wie-	.	4.cc	wie-	.
4.G	-der	.	4.d	-der	.	4.g	-der	.	4.b	-der	.
4G#X	sanf-	.	4e	sanf-	.	4b	sanf-	.	4ee	sanf-	.
8E	-te	.	8d	-te	.	8g#X	-te	.	8b	-te	.
=18	=18	=18	=18	=18	=18	=18	=18	=18	=18	=18	=18
[4.A	sü-	.	4.d	sü-	.	4.g#X	sü-	.	(4.b	sü-	.
4A]	.	.	4.c	-se	.	4.a	-se	.	4cc)	.	.
8A	-se	.	.	.	.	.	.	.	8ee	-se	.
4B	Früh-	.	4d	Früh-	.	4gn	Früh-	.	4gg	Früh-	.
8G	-lings-	.	8g	-lings-	.	8b	-lings-	.	8ff	-lings-	.
=19	=19	=19	=19	=19	=19	=19	=19	=19	=19	=19	=19
4.c	-lie-	.	4.g	-lie-	.	4.b	-lie-	.	4.dd#X	-lie-	.
4.c	-der?	.	4.g	-der?	.	4.cc	-der?	.	4.ee	-der?	.
4.r	.	.	4.r	.	.	4.r	.	.	4ee	sieh’	.
.	.	.	.	.	.	.	.	.	8ddn	um-	.
=20	=20	=20	=20	=20	=20	=20	=20	=20	=20	=20	=20
4.r	.	.	4.r	.	.	4.r	.	.	(4dd	-her	.
.	.	.	.	.	.	.	.	.	8cc	.	.
4.r	.	.	4.r	.	.	4.r	.	.	4b)	.	.
.	.	.	.	.	.	.	.	.	8a	die	.
4c	sieh’	.	4c	sieh’	.	4e	sieh’	.	4g	fal-	.
8c	um-	.	8c	um-	.	8e	um-	.	8a	-ben	.
=21	=21	=21	=21	=21	=21	=21	=21	=21	=21	=21	=21
2.B	-her	.	2.B	-her	.	2.e	-her	.	4.a	Bäu-	.
.	.	.	.	.	.	.	.	.	4.g	-me,	.
!	!	!	!	!	!	!	!	!	!	!	!LO:DY:a
4.r	.	.	4.r	.	.	4.r	.	.	4ee	sieh’	>
.	.	.	.	.	.	.	.	.	8dd	um-	]
=22	=22	=22	=22	=22	=22	=22	=22	=22	=22	=22	=22
4.r	.	.	4.r	.	.	4.r	.	.	(4cc	-her-	.
.	.	.	.	.	.	.	.	.	8b	.	.
4.r	.	.	4.r	.	.	4.r	.	.	4a)	.	.
.	.	.	.	.	.	.	.	.	8g	-die	.
4B	sieh’	.	4e	sieh’	.	4e	sieh’	.	4f#X	fal-	.
8B	um-	.	8e	um-	.	8e	um-	.	8g	-ben	.
=23	=23	=23	=23	=23	=23	=23	=23	=23	=23	=23	=23
2.A#X	-her	.	2.e	-her	.	2.c#X	-her	.	4.g	Bäu-	.
.	.	.	.	.	.	.	.	.	4.f#X	-me,	.
4An	ah-	.	4e-X	ah-	.	4f#X	ah-	.	4f#	ah-	.
8A	-nest	.	8e-	-nest	.	8f#	-nest	.	8cc	-nest	.
=24	=24	=24	=24	=24	=24	=24	=24	=24	=24	=24	=24
!LO:TX:b:i:t=cresc.	!	!	!LO:TX:b:i:t=cresc.	!	!	!LO:TX:b:i:t=cresc.	!	!	!LO:TX:b:i:t=cresc.	!	!
([4.G	du,	.	4.e-X	du,	.	4.f#X	du,	.	(4.cc	du,	.
4G]	.	.	4.d	o	.	4.g	o	.	4b)	.	.
8F)	.	.	.	.	.	.	.	.	8a	o	.
4.E	o	.	4d	See-	.	4g#X	See-	.	4g#X	See-	.
.	.	.	8fn	-le,	.	8g#	-le,	.	8dd	-le,	.
=25	=25	=25	=25	=25	=25	=25	=25	=25	=25	=25	=25
([4.A	See-	.	4.f	wie	.	4.g#X	wie	.	(4.dd	wie	.
4A]	.	.	4.e	der	.	4.a	der	.	4cc)	.	.
8G)	.	.	.	.	.	.	.	.	8b	der	.
4.F#X	-le,	.	4e	sanf-	.	4a#X	sanf-	.	4a#X	sanf-	.
.	.	.	8g	-te	.	8a#	-te	.	8ee	-te	.
=26	=26	=26	=26	=26	=26	=26	=26	=26	=26	=26	=26
!LO:TX:b:i:t=dim.	!	!	!LO:TX:b:i:t=dim.	!	!	!LO:TX:b:i:t=dim.	!	!	!LO:TX:b:i:t=dim.	!	!
[2.B	süs-	.	(4f#X	süs-	.	[2.b	süs-	.	(4dd#X	süs-	.
.	.	.	8e	.	.	.	.	.	8gg	.	.
.	.	.	4d#X)	.	.	.	.	.	4ff#X)	.	.
.	.	.	8f#	-se	.	.	.	.	8dd#	-se	.
4B]	.	.	4g	Früh-	.	4b]	.	.	4ee	Früh-	.
8B	-se	.	8e	-lings-	.	8g	-se	.	8a#X	-lings-	.
=27	=27	=27	=27	=27	=27	=27	=27	=27	=27	=27	=27
4.B	Lie-	.	4.e	-lie-	.	4.g	Lie-	.	4.a#X	-lie-	.
4.B	-der?	.	4.d#X	-der?	.	4.f#X	-der?	.	4.b	-der?	.
4.r	.	.	4.r	.	.	4.r	.	.	4.r	.	.
=28	=28	=28	=28	=28	=28	=28	=28	=28	=28	=28	=28
2.G	sieh’	p	2.e	sieh’	p	2.g	sieh’	p	2.b	sieh’	p
4.G	um-	.	4.dn	um-	.	4.fn	um-	.	4.b	um-	.
=29	=29	=29	=29	=29	=29	=29	=29	=29	=29	=29	=29
2.C	-her	.	2.c	-her	.	2.e	-her	.	2.ee	-her	.
4.C	die	.	4.G	die	.	4.e	die	.	(4dd	die	.
.	.	.	.	.	.	.	.	.	8cc)	.	.
=30	=30	=30	=30	=30	=30	=30	=30	=30	=30	=30	=30
2.F	fal-	.	2.A	fal-	.	2.d	fal-	.	2.cc	fal-	.
4.F	-ben	.	(4G#X	-ben	.	4.d	-ben	.	(4b	-ben	.
.	.	.	8A)	.	.	.	.	.	8a)	.	.
=31	=31	=31	=31	=31	=31	=31	=31	=31	=31	=31	=31
4.E	Bäu-	.	4.c	Bäu-	.	4.e	Bäu-	.	4.a	Bäu-	.
4.E	-me,	.	4.B	-me,	.	4.e	-me,	.	4.g#X	-me,	.
4E	ach!	.	4A	ach!	.	4c	ach!	.	4cc	ach!	.
8E	es	.	8B	es	.	8d	es	.	8g#	es	.
=32	=32	=32	=32	=32	=32	=32	=32	=32	=32	=32	=32
[4.F	wa-	.	[4.B	wa-	.	[4.d	wa-	.	[4.g#X	wa-	.
4F]	.	.	4B]	.	.	4d]	.	.	4g#]	.	.
8F	-ren	.	8c	-ren	.	8d#X	-ren	.	8a	-ren	.
.	.	.	.	.	.	.	.	.	8qqb/	.	.
4F	hol-	.	4B	hol-	.	4d#	hol-	.	8aL	hol-	.
.	.	.	.	.	.	.	.	.	8g#J	.	.
8F	-de	.	8A	-de	.	8d#	-de	.	8a	-de	.
=33	=33	=33	=33	=33	=33	=33	=33	=33	=33	=33	=33
4.E;	Träu-	.	4.A;	Träu-	.	4.d#X;	Träu-	.	4.cc;	Träu-	.
4.E;	-me,	.	4.G#X;	-me,	.	4.e;	-me,	.	4.b;	-me,	.
4D	ach!	.	8G#L	ach!	.	4e	ach!	.	8bL	ach!	.
.	.	.	8AJ	.	.	.	.	.	8cc#XJ	.	.
8C	es	.	8G#	es	.	8e	es	.	8b	es	.
=34	=34	=34	=34	=34	=34	=34	=34	=34	=34	=34	=34
*k[f#c#g#]	*	*	*k[f#c#g#]	*	*	*k[f#c#g#]	*	*	*k[f#c#g#]	*	*
*A:	*	*	*A:	*	*	*A:	*	*	*A:	*	*
4.C#	wa-	.	4.c#	wa-	.	4.e	wa-	.	4.ee	wa-	.
4.C#	-ren	.	4.A	-ren	.	4.e	-ren	.	4.cc#	-ren	.
4D	hol-	.	8G#L	hol-	.	4e	hol-	.	8bL	hol-	.
.	.	.	8AJ	.	.	.	.	.	8cc#J	.	.
8D	-de	.	8G#	-de	.	8e	-de	.	8b	-de	.
=35	=35	=35	=35	=35	=35	=35	=35	=35	=35	=35	=35
4.C#	Träu-	.	4.c#	Träu-	.	4.e	Träu-	.	[4.ee	Träu-	.
4.C#	-me,	.	4.A	-me,	.	4.e	-me,	.	4ee]	.	.
.	.	.	.	.	.	.	.	.	8cc#	-me,	.
4.r	.	.	4.r	.	.	4.r	.	.	4b	hol-	.
.	.	.	.	.	.	.	.	.	8a	-de,	.
=36	=36	=36	=36	=36	=36	=36	=36	=36	=36	=36	=36
4.r	.	.	4.r	.	.	4.r	.	.	(4b	hol-	.
.	.	.	.	.	.	.	.	.	8a	.	.
!	!	!LO:DY:a	!	!	!LO:DY:a	!	!	!LO:DY:a	!	!	!LO:DY:a
4.F#	hol-	<	4.A	hol-	<	4.d	hol-	<	4g#	.	<
.	.	.	.	.	.	.	.	.	8a)	.	.
4.Fn	-de	[	4.A	-de	[	4.d	-de	[	4g#	-de	.
.	.	.	.	.	.	.	.	.	8a	.	[
=37	=37	=37	=37	=37	=37	=37	=37	=37	=37	=37	=37
[2.E	Träu-	.	(4.A	Träu-	.	[2.d	Träu-	.	(2.cc#	Träu-	.
.	.	.	2.G#)	.	.	.	.	.	.	.	.
4.E]	.	.	.	.	.	4.d]	.	.	4.b)	.	.
=38	=38	=38	=38	=38	=38	=38	=38	=38	=38	=38	=38
[2.AA	-me,	.	2.A	-me,	.	2.c#	-me,	.	2.a	-me,	.
4.AA]	.	p	4c#	ach!	p	4e	ach!	p	4.r	.	.
.	.	.	8e	es	.	8gn	es	.	.	.	.
=39	=39	=39	=39	=39	=39	=39	=39	=39	=39	=39	=39
2.A	hol-	.	(4.e	wa-	.	(4.gn	wa-	.	8%9r	.	.
.	.	.	4d)	.	.	4fn)	.	.	.	.	.
.	.	.	8c#	-ren	.	8e	-ren	.	.	.	.
4.A	-de,	.	4d	hol-	.	4f	hol-	.	.	.	.
.	.	.	8B	-de	.	8d	-de	.	.	.	.
=40	=40	=40	=40	=40	=40	=40	=40	=40	=40	=40	=40
[2.A	hol-	.	4.d	Träu-	.	(4.fn	Träu-	.	4.r	.	.
.	.	.	2.c#	-me,	.	4.e)	.	.	4.r	.	.
4.A_	.	.	.	.	.	4.gn	-me,	.	4a	ach!	.
.	.	.	.	.	.	.	.	.	8ee	es	.
=41	=41	=41	=41	=41	=41	=41	=41	=41	=41	=41	=41
2.A]	.	.	2.d	hol-	.	[2.fn	hol-	.	(4.ee	wa-	.
.	.	.	.	.	.	.	.	.	4dd)	.	.
.	.	.	.	.	.	.	.	.	8cc#	-ren	.
4.A	-de	.	4.d	-de	.	4f]	.	.	4dd	hol-	.
.	.	.	.	.	.	8d	-de	.	8fn	-de	.
=42	=42	=42	=42	=42	=42	=42	=42	=42	=42	=42	=42
[2.AA	Träu-	.	4.d	Träu-	.	(2.fn	Träu-	.	(2.a	Träu-	.
.	.	.	[2.A	.	.	.	.	.	.	.	.
4.AA]	.	.	.	.	.	4.d)	.	.	4.fn)	.	.
=43	=43	=43	=43	=43	=43	=43	=43	=43	=43	=43	=43
2.AA;	-me.	.	2.A;]	-me.	.	2.c#;	-me.	.	2.e;	-me.	.
4.r	.	.	4.r	.	.	4.r	.	.	4.r	.	.
==	==	==	==	==	==	==	==	==	==	==	==
*-	*-	*-	*-	*-	*-	*-	*-	*-	*-	*-	*-
!!!system-decoration: ([s1,s2,s3,s4])
!!!EED: Imke Redecker